SVG/windows.svg

<?xml version="1.0" encoding="utf-8"?>
<!-- Generated by IcoMoon.io -->
<!DOCTYPE svg PUBLIC "-//W3C//DTD SVG 1.1//EN" "http://www.w3.org/Graphics/SVG/1.1/DTD/svg11.dtd">
<svg version="1.1" xmlns="http://www.w3.org/2000/svg" xmlns:xlink="http://www.w3.org/1999/xlink" width="13" height="14" viewBox="0 0 13 14">
<path fill="#444444" d="M5.328 7.859v5.086l-5.328-0.734v-4.352h5.328zM5.328 2.055v5.148h-5.328v-4.414zM13 7.859v6.141l-7.086-0.977v-5.164h7.086zM13 1v6.203h-7.086v-5.227z"></path>
</svg>

<svg xmlns="http://www.w3.org/2000/svg" viewBox="0 0 13 14"><path d="M5.328 7.86v5.085L0 12.21V7.86h5.328zm0-5.805v5.148H0V2.79zM13 7.86V14l-7.086-.977V7.86H13zM13 1v6.203H5.914V1.976z" /></svg>
